Sources/FrostedUI/Resources/Icons.xcassets/chat12.imageset/chat-12.svg

<svg width="12" height="12" viewBox="0 0 12 12" fill="none" xmlns="http://www.w3.org/2000/svg" data-fui-icon="true">
  <g clip-path="url(#clip0_5220_507)">
    <path
      d="M6.27942 0.569336C9.15251 0.714885 11.4376 3.09074 11.4376 6C11.4376 8.90926 9.15251 11.2851 6.27942 11.4307L6.00012 11.4375C5.56943 11.4375 5.14918 11.3873 4.74622 11.292C4.13749 11.148 3.67947 11.0784 3.27942 11.1836C2.96723 11.2657 2.66539 11.3566 2.38879 11.4463C1.8107 11.6338 1.26188 11.4101 0.925903 11.0742C0.589958 10.7382 0.366288 10.1895 0.553833 9.61133L0.687622 9.17871C0.731707 9.02958 0.775595 8.87603 0.816528 8.71973C0.921334 8.31942 0.850812 7.8614 0.707153 7.25293C0.612041 6.85008 0.562622 6.43033 0.562622 6C0.562622 2.99699 2.99716 0.562586 6.00012 0.5625L6.27942 0.569336ZM6.00012 2.0625C3.82555 2.06257 2.06262 3.82544 2.06262 6C2.06262 6.31334 2.09846 6.6174 2.16711 6.9082C2.3085 7.50705 2.47707 8.29987 2.2677 9.09961C2.1853 9.41423 2.09361 9.7159 2.005 9.99316C2.2816 9.9047 2.58329 9.81506 2.89758 9.73242C3.69813 9.52195 4.49259 9.69023 5.09192 9.83203C5.3827 9.9008 5.68689 9.93749 6.00012 9.9375C8.17458 9.93731 9.93762 8.1745 9.93762 6C9.93762 3.89329 8.28279 2.17278 6.20227 2.06738L6.00012 2.0625ZM4.50012 5C5.05233 5.00008 5.50012 5.44777 5.50012 6C5.50012 6.55223 5.05233 6.99992 4.50012 7C3.94784 7 3.50012 6.55228 3.50012 6C3.50012 5.44772 3.94784 5 4.50012 5ZM7.50012 5C8.05233 5.00008 8.50012 5.44777 8.50012 6C8.50012 6.55223 8.05233 6.99992 7.50012 7C6.94784 7 6.50012 6.55228 6.50012 6C6.50012 5.44772 6.94784 5 7.50012 5Z"
      fill="currentColor"
    />
  </g>
  <defs>
    <clipPath id="clip0_5220_507"><path fill="currentColor" d="M0 0H12V12H0z" /></clipPath>
  </defs>
</svg>

<svg xmlns="http://www.w3.org/2000/svg" width="12" height="12" fill="none" data-fui-icon="true" viewBox="0 0 12 12"><g clip-path="url(#a)"><path fill="currentColor" d="M6.28.57a5.438 5.438 0 0 1 0 10.86l-.28.008q-.646-.001-1.254-.146c-.609-.144-1.067-.214-1.467-.108a17 17 0 0 0-.89.262c-.578.188-1.127-.036-1.463-.372s-.56-.884-.372-1.463l.134-.432q.067-.225.129-.46c.104-.4.034-.858-.11-1.466A5.438 5.438 0 0 1 6 .563zM6 2.062a3.938 3.938 0 0 0-3.833 4.845c.142.599.31 1.392.1 2.192-.082.314-.173.616-.262.893.277-.088.578-.178.893-.26.8-.211 1.595-.043 2.194.099q.437.104.908.105a3.938 3.938 0 0 0 .202-7.87zM4.5 5a1 1 0 1 1 0 2 1 1 0 0 1 0-2m3 0a1 1 0 1 1 0 2 1 1 0 0 1 0-2"/></g><defs><clipPath id="a"><path fill="currentColor" d="M0 0h12v12H0z"/></clipPath></defs></svg>
